; generated by AnkerMake Studio 1.5.26 on 2025-09-19 at 14:36:04 UTC

;MINX:70.1
;MINY:54.105
;MINZ:0.14
;MAXX:149.9
;MAXY:165.772
;MAXZ:28.94

; filament_type = "PETG"
;Filament Name:PETG
;Machine Name:AnkerMake M5C
;Profile Name:PETG-CF_BLACK
;multi_model:true
;support_enable:true
;damaged:false
;repaired:false
;adhesion_type:auto_brim
;perimeter_flow_ratio:1
;Machine Nozzle Size:0.4
;Print Mode:PETG-CF_BLACK
;Filament weight: 67.0798g
;Filament used: 21959.5mm
;Layer height: 0.2
;material_print_temperature_layer_0: 255
;speed_infill: 250
;speed_wall_0: 150
;speed_wall_x: 250
;acceleration_print: 2500
;acceleration_travel: 2500
;MAXSPEED:15000
;TIME:6708.4s

;
;
; PRINT_COMPATIBLE
;  P_NORMAL
;  PETG
; 

; external perimeters extrusion width = 0.44mm
; perimeters extrusion width = 0.40mm
; infill extrusion width = 0.40mm
; solid infill extrusion width = 0.40mm
; top infill extrusion width = 0.40mm
; support material extrusion width = 0.30mm
; first layer extrusion width = 0.50mm

; external perimeters extrusion width = 0.44mm
; perimeters extrusion width = 0.40mm
; infill extrusion width = 0.40mm
; solid infill extrusion width = 0.40mm
; top infill extrusion width = 0.40mm
; support material extrusion width = 0.30mm
; first layer extrusion width = 0.50mm

M73 P0 R111
;TYPE:Custom
M104 S255 ; set final nozzle temp
M190 S85 ; set and wait for bed temp to stabilize
M109 S255 ; wait for nozzle temp to stabilize
G28 ;Home
;LAYER_COUNT:157
G21 ; set units to millimeters
G90 ; use absolute coordinates
M82 ; use absolute distances for extrusion
G92 E0
; Filament gcode
M107
;LAYER_CHANGE
;Z:0.14
;HEIGHT:0.14
;BEFORE_LAYER_CHANGE
;0.14
;LAYER:1
G1 E-.8 F3600
G92 E0
;AFTER_LAYER_CHANGE
;0.14
M205 X10 Y10
M204 T2500
G17
G3 Z.14 I-.316 J.285 P1  F7800
G1 X65.991 Y73.116
G1 E.8 F3600
M204 P2500
;TYPE:Skirt/Brim
;WIDTH:0.5
G1 E.8 F3000
G1 X67.578 Y71.826 E.85315
G1 X106.765 Y49.202 E2.029
G1 X108.896 Y48.43 E2.0879
G1 X111.162 Y48.44 E2.14679
G1 X113.235 Y49.202 E2.20418
G1 X152.412 Y71.821 E3.37974
G1 X154.146 Y73.28 E3.43863
G1 X155.27 Y75.248 E3.49752
G1 X155.647 Y77.423 E3.55488
G1 X155.657 Y159.654 E5.69175
G1 X155.261 Y161.885 E5.75063
G1 X154.119 Y163.843 E5.80953
G1 X152.055 Y165.455 E5.87759
G1 X144.335 Y169.272 E6.10139
G1 X142.237 Y169.896 E6.15827
G1 X86.178 Y176.609 E7.62544
G1 X84.435 Y176.655 E7.67075
G1 X82.15 Y176.319 E7.73077
G1 X80.606 Y175.804 E7.77307
G1 X79.321 Y175.176 E7.81024
G1 X68.218 Y168.765 E8.14341
G1 X67.251 Y168.13 E8.17347
G1 X66.007 Y167.081 E8.21576
G1 X65.361 Y166.395 E8.24025
G1 X64.461 Y165.208 E8.27896
G1 X63.56 Y163.557 E8.32784
G1 X63.213 Y162.68 E8.35235
G1 X62.79 Y161.108 E8.39465
G1 X62.583 Y159.006 E8.44954
G1 X62.585 Y146.019 E8.78702
G1 X64.345 Y77.264 E10.57429
G1 X64.799 Y75.044 E10.63317
G1 X65.959 Y73.167 E10.69051
;WIPE_START
G1 F2400
G1 X67.499 Y71.891 E10.49051
;WIPE_END
G1 E9.89051 F3600
G92 E0
G1 X83.881 Y135.343 F7800
G1 E.8 F3600
G1 E.8 F3000
G1 X84.527 Y135.24 E.817
G1 X84.904 Y135.223 E.82681
G1 X85.656 Y135.271 E.84639
G1 X86.29 Y135.413 E.86327
G1 X86.902 Y135.646 E.88029
G1 X87.243 Y135.824 E.89029
G1 X98.334 Y142.227 E1.22308
G1 X98.88 Y142.598 E1.24023
G1 X99.359 Y143.038 E1.25713
G1 X99.772 Y143.546 E1.27414
G1 X99.974 Y143.864 E1.28393
G1 X100.309 Y144.54 E1.30354
G1 X100.504 Y145.159 E1.3204
G1 X100.607 Y145.805 E1.3374
G1 X100.624 Y146.19 E1.34741
G1 X100.624 Y158.997 E1.68022
G1 X100.576 Y159.655 E1.69736
G1 X100.435 Y160.29 E1.71426
G1 X100.201 Y160.901 E1.73126
G1 X100.027 Y161.236 E1.74107
G1 X99.609 Y161.863 E1.76065
G1 X99.17 Y162.342 E1.77753
G1 X98.662 Y162.755 E1.79454
G1 X98.337 Y162.961 E1.80454
G1 X87.246 Y169.365 E2.13735
G1 X86.652 Y169.652 E2.15449
G1 X86.032 Y169.847 E2.17138
G1 X85.386 Y169.951 E2.18838
G1 X84.911 Y169.967 E2.20073
G1 X84.257 Y169.919 E2.21777
G1 X83.622 Y169.778 E2.23467
G1 X83.011 Y169.545 E2.25166
G1 X82.67 Y169.367 E2.26166
G1 X71.578 Y162.963 E2.59449
G1 X71.033 Y162.593 E2.61161
G1 X70.553 Y162.153 E2.62853
G1 X70.141 Y161.646 E2.64551
G1 X69.889 Y161.242 E2.65788
G1 X69.604 Y160.652 E2.67491
G1 X69.408 Y160.031 E2.69183
G1 X69.305 Y159.385 E2.70883
G1 X69.288 Y159.001 E2.71882
G1 X69.288 Y146.193 E3.05165
G1 X69.336 Y145.536 E3.06877
G1 X69.478 Y144.901 E3.08568
G1 X69.711 Y144.289 E3.1027
G1 X69.885 Y143.955 E3.11249
G1 X70.303 Y143.327 E3.13209
G1 X70.743 Y142.848 E3.14899
G1 X71.25 Y142.436 E3.16597
G1 X71.575 Y142.229 E3.17598
G1 X82.666 Y135.826 E3.50877
G1 X83.26 Y135.538 E3.52592
G1 X83.823 Y135.361 E3.54126
G1 X83.964 Y135.809 F7800
G1 E3.54126 F3000
G1 X83.989 Y135.802 E3.54193
G1 X84.574 Y135.708 E3.55733
G1 X84.899 Y135.694 E3.56578
G1 X85.59 Y135.738 E3.58377
G1 X86.155 Y135.864 E3.59881
G1 X86.708 Y136.075 E3.61419
G1 X87.017 Y136.236 E3.62324
G1 X98.084 Y142.626 E3.95533
G1 X98.587 Y142.967 E3.97112
G1 X99.016 Y143.361 E3.98626
G1 X99.39 Y143.821 E4.00167
G1 X99.564 Y144.095 E4.0101
G1 X99.872 Y144.715 E4.02809
G1 X100.045 Y145.268 E4.04315
G1 X100.139 Y145.853 E4.05855
G1 X100.154 Y146.2 E4.06758
G1 X100.154 Y158.98 E4.39968
G1 X100.11 Y159.586 E4.41547
G1 X99.983 Y160.154 E4.43059
G1 X99.772 Y160.708 E4.446
G1 X99.622 Y160.996 E4.45444
G1 X99.238 Y161.573 E4.47245
G1 X98.847 Y161.999 E4.48748
G1 X98.387 Y162.373 E4.50289
G1 X98.094 Y162.559 E4.51191
G1 X87.026 Y168.949 E4.84402
G1 X86.479 Y169.214 E4.85981
G1 X85.923 Y169.389 E4.87496
G1 X85.341 Y169.482 E4.89028
G1 X84.92 Y169.496 E4.90123
G1 X84.326 Y169.453 E4.91671
G1 X83.757 Y169.327 E4.93185
G1 X83.204 Y169.115 E4.94724
G1 X82.896 Y168.955 E4.95626
G1 X71.828 Y162.565 E5.28837
G1 X71.325 Y162.223 E5.30418
G1 X70.896 Y161.83 E5.3193
G1 X70.524 Y161.372 E5.33463
G1 X70.301 Y161.014 E5.34559
G1 X70.042 Y160.478 E5.36106
G1 X69.867 Y159.923 E5.37618
G1 X69.773 Y159.338 E5.39158
G1 X69.758 Y158.991 E5.40061
G1 X69.758 Y146.21 E5.73274
G1 X69.803 Y145.604 E5.74853
G1 X69.929 Y145.036 E5.76365
G1 X70.14 Y144.482 E5.77906
G1 X70.291 Y144.194 E5.78751
G1 X70.674 Y143.618 E5.80548
G1 X71.066 Y143.191 E5.82054
G1 X71.525 Y142.818 E5.83591
G1 X71.819 Y142.631 E5.84496
G1 X82.887 Y136.241 E6.17707
G1 X83.434 Y135.976 E6.19286
G1 X83.907 Y135.827 E6.20575
G1 X84.048 Y136.276 F7800
G1 E6.20575 F3000
G1 X84.097 Y136.26 E6.20709
G1 X84.621 Y136.176 E6.22088
G1 X84.894 Y136.165 E6.22798
G1 X85.523 Y136.205 E6.24436
G1 X86.019 Y136.315 E6.25756
G1 X86.515 Y136.505 E6.27136
G1 X86.79 Y136.648 E6.27941
G1 X97.835 Y143.024 E6.61082
G1 X98.295 Y143.337 E6.62528
G1 X98.673 Y143.684 E6.63861
G1 X99.008 Y144.096 E6.65241
G1 X99.154 Y144.326 E6.65949
G1 X99.434 Y144.891 E6.67588
G1 X99.587 Y145.376 E6.6891
G1 X99.671 Y145.9 E6.70289
G1 X99.684 Y146.21 E6.71095
G1 X99.684 Y158.963 E7.04235
G1 X99.643 Y159.518 E7.05681
G1 X99.532 Y160.019 E7.07014
G1 X99.343 Y160.515 E7.08393
G1 X99.216 Y160.757 E7.09103
G1 X98.867 Y161.282 E7.10741
G1 X98.524 Y161.656 E7.1206
G1 X98.111 Y161.991 E7.13442
G1 X97.85 Y162.157 E7.14246
G1 X86.806 Y168.534 E7.47386
G1 X86.305 Y168.776 E7.48832
G1 X85.815 Y168.93 E7.50167
G1 X85.296 Y169.013 E7.51533
G1 X84.929 Y169.026 E7.52487
G1 X84.394 Y168.987 E7.53881
G1 X83.893 Y168.875 E7.55215
G1 X83.397 Y168.686 E7.56594
G1 X83.122 Y168.543 E7.57399
G1 X72.078 Y162.166 E7.90539
G1 X71.617 Y161.854 E7.91986
G1 X71.239 Y161.506 E7.93321
G1 X70.907 Y161.098 E7.94688
G1 X70.713 Y160.787 E7.95641
G1 X70.48 Y160.304 E7.97035
G1 X70.326 Y159.815 E7.98367
G1 X70.242 Y159.29 E7.99749
G1 X70.228 Y158.98 E8.00555
G1 X70.228 Y146.228 E8.33693
G1 X70.269 Y145.673 E8.35139
G1 X70.38 Y145.172 E8.36472
G1 X70.57 Y144.676 E8.37852
G1 X70.696 Y144.434 E8.38561
G1 X71.045 Y143.909 E8.40199
G1 X71.389 Y143.535 E8.41519
G1 X71.801 Y143.2 E8.42899
G1 X72.062 Y143.033 E8.43704
G1 X83.107 Y136.657 E8.76845
G1 X83.607 Y136.414 E8.7829
G1 X83.991 Y136.294 E8.79335
G1 X84.132 Y136.742 F7800
G1 E8.79335 F3000
G1 X84.205 Y136.719 E8.79534
G1 X84.669 Y136.645 E8.80755
G1 X84.889 Y136.635 E8.81327
G1 X85.457 Y136.671 E8.82806
G1 X85.884 Y136.766 E8.83943
G1 X86.322 Y136.934 E8.85162
G1 X86.564 Y137.06 E8.85871
G1 X97.585 Y143.423 E9.18941
G1 X98.002 Y143.706 E9.20251
G1 X98.33 Y144.007 E9.21408
G1 X98.626 Y144.371 E9.22627
G1 X98.744 Y144.557 E9.23199
G1 X98.997 Y145.067 E9.24678
G1 X99.128 Y145.484 E9.25814
G1 X99.202 Y145.948 E9.27035
G1 X99.214 Y146.22 E9.27743
G1 X99.214 Y158.946 E9.60813
G1 X99.177 Y159.449 E9.62124
G1 X99.081 Y159.883 E9.63279
G1 X98.913 Y160.322 E9.645
G1 X98.811 Y160.517 E9.65072
G1 X98.496 Y160.991 E9.66551
G1 X98.201 Y161.313 E9.67686
G1 X97.836 Y161.609 E9.68907
G1 X86.585 Y168.118 E10.02684
G1 X86.131 Y168.338 E10.03995
G1 X85.707 Y168.471 E10.0515
G1 X85.25 Y168.545 E10.06353
G1 X84.938 Y168.555 E10.07164
G1 X84.463 Y168.521 E10.08402
G1 X84.029 Y168.424 E10.09558
G1 X83.59 Y168.257 E10.10779
G1 X83.348 Y168.131 E10.11488
G1 X72.327 Y161.768 E10.44558
G1 X71.91 Y161.484 E10.45869
G1 X71.582 Y161.183 E10.47026
G1 X71.291 Y160.825 E10.48225
G1 X71.125 Y160.559 E10.4904
G1 X70.918 Y160.131 E10.50275
G1 X70.784 Y159.706 E10.51433
G1 X70.71 Y159.243 E10.52651
G1 X70.698 Y158.97 E10.53361
G1 X70.698 Y146.245 E10.86428
G1 X70.735 Y145.741 E10.87741
G1 X70.832 Y145.307 E10.88897
G1 X70.999 Y144.869 E10.90115
G1 X71.101 Y144.673 E10.90689
G1 X71.416 Y144.2 E10.92166
G1 X71.712 Y143.878 E10.93303
G1 X72.076 Y143.581 E10.94524
G1 X83.327 Y137.072 E11.28301
G1 X83.781 Y136.852 E11.29612
G1 X84.075 Y136.76 E11.30413
G1 X84.216 Y137.208 F7800
G1 E11.30413 F3000
G1 X84.314 Y137.178 E11.30679
G1 X84.716 Y137.113 E11.31737
G1 X84.884 Y137.106 E11.32174
G1 X85.391 Y137.138 E11.33494
G1 X85.748 Y137.218 E11.34445
G1 X86.129 Y137.363 E11.35504
G1 X86.338 Y137.472 E11.36117
G1 X97.335 Y143.821 E11.69115
G1 X97.71 Y144.076 E11.70293
G1 X97.987 Y144.33 E11.7127
G1 X98.244 Y144.647 E11.7233
G1 X98.334 Y144.788 E11.72765
G1 X98.56 Y145.243 E11.74085
G1 X98.669 Y145.592 E11.75035
G1 X98.734 Y145.995 E11.76096
G1 X98.744 Y146.23 E11.76707
G1 X98.744 Y158.928 E12.09704
G1 X98.711 Y159.381 E12.10884
G1 X98.629 Y159.748 E12.11861
G1 X98.484 Y160.129 E12.1292
G1 X98.406 Y160.278 E12.13357
G1 X98.125 Y160.7 E12.14674
G1 X97.877 Y160.97 E12.15627
G1 X97.569 Y161.221 E12.16659
G1 X86.365 Y167.703 E12.50295
G1 X85.957 Y167.9 E12.51472
G1 X85.599 Y168.013 E12.52448
G1 X85.205 Y168.076 E12.53485
G1 X84.947 Y168.085 E12.54156
G1 X84.531 Y168.054 E12.5524
G1 X84.164 Y167.973 E12.56217
G1 X83.783 Y167.827 E12.57277
G1 X83.574 Y167.719 E12.57888
G1 X72.577 Y161.369 E12.90887
G1 X72.202 Y161.115 E12.92064
G1 X71.925 Y160.86 E12.93042
G1 X71.674 Y160.551 E12.94077
G1 X71.537 Y160.332 E12.94748
G1 X71.356 Y159.957 E12.9583
G1 X71.243 Y159.598 E12.96808
G1 X71.178 Y159.195 E12.97869
G1 X71.168 Y158.96 E12.9848
G1 X71.168 Y146.262 E13.31477
G1 X71.201 Y145.81 E13.32655
G1 X71.283 Y145.443 E13.33632
G1 X71.428 Y145.062 E13.34691
G1 X71.506 Y144.913 E13.35128
G1 X71.787 Y144.49 E13.36448
G1 X72.035 Y144.221 E13.37399
G1 X72.344 Y143.97 E13.38434
G1 X83.547 Y137.488 E13.72068
G1 X83.955 Y137.29 E13.73246
G1 X84.158 Y137.226 E13.73799
G1 X84.3 Y137.675 F7800
G1 E13.73799 F3000
G1 X84.671 Y137.593 E13.74786
G1 X85.362 Y137.612 E13.76582
G1 X85.612 Y137.675 E13.77252
G1 X86.063 Y137.856 E13.78515
G1 X97.167 Y144.267 E14.11834
G1 X97.578 Y144.596 E14.13202
G1 X97.951 Y145.074 E14.14778
G1 X98.011 Y145.181 E14.15097
G1 X98.178 Y145.602 E14.16274
G1 X98.274 Y146.185 E14.17809
G1 X98.274 Y159.006 E14.51126
G1 X98.172 Y159.607 E14.5271
G1 X97.942 Y160.134 E14.54204
G1 X97.62 Y160.553 E14.55577
G1 X97.167 Y160.924 E14.57099
G1 X86.063 Y167.334 E14.90417
G1 X85.573 Y167.526 E14.91785
G1 X84.972 Y167.61 E14.93362
G1 X84.849 Y167.608 E14.93682
G1 X84.402 Y167.542 E14.94856
G1 X83.849 Y167.334 E14.96391
G1 X72.745 Y160.924 E15.29709
G1 X72.334 Y160.594 E15.31079
G1 X71.961 Y160.116 E15.32655
G1 X71.901 Y160.009 E15.32974
G1 X71.734 Y159.589 E15.34149
G1 X71.638 Y159.006 E15.35684
G1 X71.638 Y146.185 E15.69001
G1 X71.741 Y145.583 E15.70588
G1 X71.97 Y145.056 E15.72081
G1 X72.292 Y144.637 E15.73454
G1 X72.745 Y144.267 E15.74974
G1 X83.849 Y137.856 E16.08293
G1 X84.244 Y137.697 E16.09399
G1 X84.414 Y138.135 F7800
G1 E16.09399 F3000
G1 X84.47 Y138.113 E16.09555
G1 X84.764 Y138.054 E16.10334
G1 X85.255 Y138.069 E16.11611
G1 X85.442 Y138.113 E16.1211
G1 X85.829 Y138.263 E16.13189
G1 X96.932 Y144.674 E16.46506
G1 X97.28 Y144.959 E16.47675
G1 X97.574 Y145.355 E16.48957
G1 X97.741 Y145.775 E16.50132
G1 X97.804 Y146.185 E16.5121
G1 X97.804 Y159.006 E16.84527
G1 X97.709 Y159.522 E16.8589
G1 X97.516 Y159.935 E16.87075
G1 X97.255 Y160.257 E16.88152
G1 X96.932 Y160.517 E16.89229
G1 X85.829 Y166.927 E17.22545
G1 X85.407 Y167.086 E17.23717
G1 X84.917 Y167.143 E17.24999
G1 X84.47 Y167.077 E17.26173
G1 X84.084 Y166.927 E17.27249
G1 X72.98 Y160.517 E17.60567
G1 X72.632 Y160.231 E17.61738
G1 X72.338 Y159.836 E17.63018
G1 X72.171 Y159.415 E17.64195
G1 X72.108 Y159.006 E17.6527
G1 X72.108 Y146.185 E17.98587
G1 X72.203 Y145.668 E17.99953
G1 X72.396 Y145.255 E18.01138
G1 X72.657 Y144.933 E18.02215
G1 X72.98 Y144.674 E18.03291
G1 X84.084 Y138.263 E18.3661
G1 X84.358 Y138.157 E18.37373
G1 X84.521 Y138.595 F7800
G1 E18.37373 F3000
G1 X84.633 Y138.554 E18.37683
G1 X84.845 Y138.517 E18.38242
G1 X85.162 Y138.53 E18.39066
G1 X85.279 Y138.554 E18.39376
G1 X85.594 Y138.67 E18.40248
G1 X96.697 Y145.081 E18.73565
G1 X96.913 Y145.253 E18.74283
G1 X97.143 Y145.541 E18.75241
G1 X97.278 Y145.854 E18.76127
G1 X97.334 Y146.185 E18.76999
G1 X97.334 Y159.006 E19.10316
G1 X97.278 Y159.336 E19.11186
G1 X97.143 Y159.65 E19.12074
G1 X96.955 Y159.895 E19.12877
G1 X96.697 Y160.11 E19.1375
G1 X85.594 Y166.52 E19.47066
G1 X85.337 Y166.621 E19.47784
G1 X84.972 Y166.676 E19.48743
G1 X84.633 Y166.637 E19.4963
G1 X84.319 Y166.52 E19.50501
G1 X73.215 Y160.11 E19.83819
G1 X73 Y159.938 E19.84534
G1 X72.77 Y159.65 E19.85492
G1 X72.634 Y159.336 E19.86381
G1 X72.578 Y159.006 E19.87251
G1 X72.578 Y146.185 E20.20568
G1 X72.634 Y145.854 E20.2144
G1 X72.77 Y145.541 E20.22327
G1 X72.957 Y145.295 E20.2313
G1 X73.215 Y145.081 E20.24001
G1 X84.319 Y138.67 E20.5732
G1 X84.464 Y138.616 E20.57722
G1 X84.614 Y139.057 F7800
G1 E20.57722 F3000
G1 X84.784 Y138.999 E20.58189
G1 X84.906 Y138.983 E20.58509
G1 X85.128 Y138.999 E20.59087
G1 X85.359 Y139.077 E20.59721
G1 X96.462 Y145.488 E20.93038
G1 X96.559 Y145.562 E20.93355
G1 X96.72 Y145.746 E20.9399
G1 X96.817 Y145.946 E20.94568
G1 X96.864 Y146.185 E20.95201
G1 X96.864 Y159.006 E21.28518
G1 X96.817 Y159.245 E21.29151
G1 X96.72 Y159.445 E21.29729
G1 X96.645 Y159.542 E21.30048
G1 X96.462 Y159.703 E21.30681
G1 X85.359 Y166.113 E21.63997
G1 X85.245 Y166.16 E21.64317
G1 X85.006 Y166.208 E21.6495
G1 X84.784 Y166.192 E21.65528
G1 X84.554 Y166.113 E21.6616
G1 X73.45 Y159.703 E21.99478
G1 X73.353 Y159.628 E21.99797
G1 X73.192 Y159.445 E22.0043
G1 X73.095 Y159.245 E22.01008
G1 X73.048 Y159.006 E22.01641
G1 X73.048 Y146.185 E22.34958
G1 X73.095 Y145.946 E22.35591
G1 X73.192 Y145.746 E22.36169
G1 X73.267 Y145.648 E22.3649
G1 X73.45 Y145.488 E22.37122
G1 X84.554 Y139.077 E22.70441
G1 X84.557 Y139.076 E22.70449
G1 X84.789 Y139.484 F7800
G1 E22.70449 F3000
G1 X84.906 Y139.453 E22.70764
G1 X85.006 Y139.453 E22.71024
G1 X85.124 Y139.484 E22.71341
G1 X96.227 Y145.895 E23.04658
G1 X96.313 Y145.981 E23.04974
G1 X96.363 Y146.067 E23.05233
G1 X96.394 Y146.185 E23.0555
G1 X96.394 Y159.006 E23.38867
G1 X96.363 Y159.123 E23.39182
G1 X96.313 Y159.21 E23.39443
G1 X96.227 Y159.296 E23.39759
G1 X85.124 Y165.706 E23.73075
G1 X85.006 Y165.738 E23.73393
G1 X84.906 Y165.738 E23.73653
G1 X84.789 Y165.706 E23.73968
G1 X73.685 Y159.296 E24.07286
G1 X73.599 Y159.21 E24.07602
G1 X73.549 Y159.123 E24.07863
G1 X73.518 Y159.006 E24.08178
G1 X73.518 Y146.185 E24.41495
G1 X73.549 Y146.067 E24.41812
G1 X73.599 Y145.981 E24.42071
G1 X73.685 Y145.895 E24.42387
G1 X84.737 Y139.514 E24.7555
;WIPE_START
G1 F2400
G1 X84.906 Y139.453 E24.73753
G1 X85.006 Y139.453 E24.72753
G1 X85.124 Y139.484 E24.71533
G1 X86.508 Y140.283 E24.5555
;WIPE_END
G1 E23.9555 F3600
G92 E0
G1 X113.965 Y97.765 F7800
G1 E.8 F3600
;TYPE:Support material
G1 E.8 F3000
G1 X113.965 Y102.344 E.91899
